X: 1
T: Reel des copeaux de bois
T: Wood chip reel
O: trad. Qu\'ebec
R: reel
Z: 2007 John Chambers <jc:trillian.mit.edu> from Pascal Gemme's blog
M: C|
L: 1/8
K: D
fg | afaf gfg2 | bgbg e2fg | afaf dfdf | egec d2 :|
|: [f2d2] | Acdf dfdf | egec ec[e2c2] | Acdf dfdf | egec d2 :|
